X: 39
T: Saviour of the Nations Come
M: 4/4 % time signature
L: 1/4 % default length
%%staves (S1V1 S1V2) | (S2V1 S2V2) 
V: S1V1 clef=treble 
%%MIDI beat 127 125 110 1
V: S1V2 
%%MIDI beat 127 125 110 1
V: S2V1 clef=bass 
%%MIDI beat 127 125 110 1
V: S2V2 
%%MIDI beat 127 125 110 1
K: Bb % key signature
%
%%MIDI program 1 0 % Piano 1
%%MIDI program 2 0 % Piano 1
%%MIDI program 3 0 % Piano 1
%%MIDI program 4 0 % Piano 1
%
% 1
[V: S1V1] [Q:1/4=100] G G F B | A/G/ A G2 | G B c3/2 B/ | c d B2 |
w: 1.~Sa- viour of the na- * tions, come; Vir- gin's Son, here make thy home! 
w: 2.~Not by hu- man flesh * and blood; By the Spi- rit of our God 
w: 3.~Won- drous birth! O won- * drous Child Of the vir- gin un- de- filed! 
w: 4.~From the Fa- ther forth * he came And re- turn- eth to the same, 
w: 5.~Thou, the Fa- ther's on- * ly Son, Hast o'er sin the vic- t'ry won. 
[V: S1V2]  D E D F | E/G/ ^F G2 | D D E3/2 D/ | F F F2 |
[V: S2V1]  B, C A, D | C/B,/ A, B,2 | B, B, G,3/2 B,/ | A, B, D2 |
[V: S2V2]  G,, C, D, B,, | C,/G,,/ D, G,,2 | G, G, C,3/2 G,/ | F, B,, B,,2 |
% 5
[V: S1V1]  B c d B | c B/A/ G2 | !sintro!G G F B | A/G/ A G2 !eintro!|]
w: Mar- vel now, O heav'n and * earth, That the Lord chose such * a birth. 
w: Was the Word of God made * flesh, Wo- man's off- spring, pure * and fresh. 
w: Though by all the world dis- * owned, Still to be in hea- ven en- throned. 
w: Cap- tive lead- ing death and * hell High the song of tri- * umph swell! 
w: Bound- less shall thy king- dom * be; When shall we its glo- * ries see? 
[V: S1V2]  D F F G | G/A/ G/^F/ G2 | E E D D | ^F/G/ F G2 |]
[V: S2V1]  F, A, B, B, | E D B,2 | B, C A, B, | D/B,/ A, B,2 |]
[V: S2V2]  B,, F,, B,, E, | C, D, G,,2 | E, C, D, G,, | D, D, G,,2 |]
% 10
W:6.Brightly doth thy manger shine,
W:Glorious is its light divine.
W:Let not sin o'ercloud this light;
W:Ever be our faith thus bright.
W:
W:7.Praise to God the Father sing,
W:Praise to God the Son, our King,
W:Praise to God the Spirit be
W:Ever and eternally.

